frontend/svgs/biz007.svg

<?xml version="1.0" encoding="UTF-8"?> <svg width="100px" height="100px" viewBox="0 0 100 100" version="1.1" xmlns="http://www.w3.org/2000/svg" xmlns:xlink="http://www.w3.org/1999/xlink"> <g id="6.-E-mail" stroke="none" stroke-width="1" fill="none" fill-rule="evenodd" stroke-linecap="round" stroke-linejoin="round"> <path d="M56.6543441,70.1604556 C53.0867302,73.8748949 48.6411516,75.8537084 43.3258143,75.5738713 C29.1570424,74.8279266 24.1199069,62.0724444 27.3313041,45.8413181 C30.0957398,31.8692363 40.4278959,21.5870454 51.8869949,22.3017598 C56.3517135,22.5802283 59.900479,24.5204075 62.4276353,27.5442056 C63.1742963,25.4040669 65.4502847,24.1544338 67.6899164,24.7242095 C70.054976,25.3258948 71.4838927,27.728637 70.8814911,30.0908844 L68.9682981,37.5932468 L63.7445016,63.1387087 C64.0847817,67.2419621 66.3738725,68.8548851 70.8200828,68.8548851 C80.3611388,68.8548851 87.9619048,59.5820234 87.9619048,43.6436782 C87.9619048,24.0227654 74.8436478,10.8275862 55.305383,10.8275862 C32.616245,10.8275862 12.8380952,29.024187 12.8380952,54.0862069 C12.8380952,75.9180838 27.4018717,89.1724138 46.7494824,89.1724138 C58.1802148,89.1724138 66.1844175,86.881399 76.6796911,79.8229992 C78.7041211,78.4615067 81.4502675,78.9969724 82.8133808,81.0189952 C84.1764941,83.041018 83.6403911,85.7838991 81.6159611,87.1453916 C69.615561,95.216036 59.8891236,98 46.7494824,98 C22.6947352,98 4,80.9861307 4,54.0862069 C4,23.9795224 27.8898622,2 55.305383,2 C79.7387682,2 96.8,19.1612746 96.8,43.6436782 C96.8,64.1113989 85.6760829,77.6824713 70.8200828,77.6824713 C64.4057789,77.6824713 59.2366247,75.1425479 56.6543441,70.1604556 Z M57.7059554,46.2340021 C59.4009225,37.733785 56.4789056,31.3125108 51.3386868,30.9919107 C44.8145313,30.5849932 37.9172744,37.4488957 35.9242772,47.5219534 C33.5955345,59.2919447 36.4387773,66.4918569 43.7889006,66.8788195 C50.5044577,67.2323741 55.0579311,59.5137759 57.7059554,46.2340021 Z" id="Layer-1" stroke="#FF6B6B" stroke-width="4" fill="#FF6B6B" fill-rule="nonzero"></path> </g> </svg>

<svg width="100" height="100" xmlns="http://www.w3.org/2000/svg"><path d="M56.654 70.16c-3.567 3.715-8.013 5.694-13.328 5.414C29.157 74.828 24.12 62.072 27.33 45.84c2.765-13.972 13.097-24.254 24.556-23.54 4.465.28 8.013 2.22 10.54 5.243a4.42 4.42 0 015.263-2.82 4.413 4.413 0 013.191 5.367l-1.913 7.502-5.223 25.546c.34 4.103 2.629 5.716 7.075 5.716 9.541 0 17.142-9.273 17.142-25.211 0-19.621-13.118-32.816-32.657-32.816-22.689 0-42.467 18.196-42.467 43.258 0 21.832 14.564 35.086 33.911 35.086 11.431 0 19.435-2.29 29.93-9.349a4.422 4.422 0 016.134 1.196 4.41 4.41 0 01-1.197 6.126C69.616 95.216 59.889 98 46.749 98 22.695 98 4 80.986 4 54.086 4 23.98 27.89 2 55.305 2 79.74 2 96.8 19.161 96.8 43.644c0 20.467-11.124 34.038-25.98 34.038-6.414 0-11.583-2.54-14.166-7.522zm1.052-23.926c1.695-8.5-1.227-14.921-6.367-15.242-6.524-.407-13.422 6.457-15.415 16.53-2.328 11.77.515 18.97 7.865 19.357 6.715.353 11.269-7.365 13.917-20.645z" stroke="#FF6B6B" stroke-width="4" fill="#FF6B6B" fill-rule="nonzero" stroke-linecap="round" stroke-linejoin="round"/></svg>
